Catalina-dark/actions/22/view-time-schedule-baselined-remove.svg

<svg width="22" height="22" viewBox="3 3 16 16" xmlns="http://www.w3.org/2000/svg">
<defs>
<style id="current-color-scheme" type="text/css">.ColorScheme-Text {
        color:#f2f2f2
      }</style>
</defs>
<path class="ColorScheme-Text" d="m4 3c-0.55402 0-1 0.44598-1 1v14c0 0.55402 0.44598 1 1 1h14c0.55402 0 1-0.44598 1-1v-14c0-0.55402-0.44598-1-1-1h-14zm7 3c0.90721 0 1.7436 0.22283 2.5098 0.66992 0.76601 0.44709 1.3732 1.0543 1.8203 1.8203 0.44693 0.76601 0.66992 1.6026 0.66992 2.5098 0 0.90705-0.22291 1.7437-0.66992 2.5098-0.44709 0.766-1.0543 1.3733-1.8203 1.8203-0.76601 0.44709-1.6026 0.66992-2.5098 0.66992s-1.7437-0.22283-2.5098-0.66992-1.3732-1.0544-1.8203-1.8203c-0.44701-0.76617-0.66992-1.6026-0.66992-2.5098 0-0.90705 0.22275-1.7437 0.66992-2.5098 0.44709-0.76609 1.0542-1.3733 1.8203-1.8203 0.76601-0.44709 1.6026-0.66992 2.5098-0.66992zm-1.4707 2.5195c-0.11723 0-0.21832 0.0406-0.30078 0.12305l-0.58594 0.58594c-0.0825 0.0825-0.12305 0.18355-0.12305 0.30078 0 0.11283 0.0406 0.21058 0.12305 0.29297l1.1797 1.1777-1.1797 1.1777c-0.0825 0.0824-0.12305 0.18014-0.12305 0.29297 0 0.11715 0.0406 0.2184 0.12305 0.30078l0.58594 0.58594c0.0825 0.0825 0.18355 0.12305 0.30078 0.12305 0.11283 0 0.2105-0.0406 0.29297-0.12305l1.1777-1.1797 1.1777 1.1797c0.0823 0.0825 0.18014 0.12305 0.29297 0.12305 0.11723 0 0.21832-0.0406 0.30078-0.12305l0.58594-0.58594c0.0825-0.0824 0.12305-0.18363 0.12305-0.30078 0-0.11283-0.0406-0.21058-0.12305-0.29297l-1.1797-1.1777 1.1797-1.1777c0.0825-0.0824 0.12305-0.18014 0.12305-0.29297 0-0.11723-0.0406-0.21832-0.12305-0.30078l-0.58594-0.58594c-0.0825-0.0825-0.18355-0.12305-0.30078-0.12305-0.11283 0-0.21066 0.0406-0.29297 0.12305l-1.1777 1.1797-1.1777-1.1797c-0.0825-0.0825-0.18014-0.12305-0.29297-0.12305z" fill="currentColor"/>
</svg>

<svg xmlns="http://www.w3.org/2000/svg" viewBox="0 0 22 22">
  <defs id="defs3051">
    <style type="text/css" id="current-color-scheme">
      .ColorScheme-Text {
        color:#f2f2f2
      }
      </style>
  </defs>
 <path 
     style="fill:currentColor;fill-opacity:1;stroke:none"      
	 class="ColorScheme-Text"
        d="M 4,3 C 3.44598,3 3,3.44598 3,4 l 0,14 c 0,0.55402 0.44598,1 1,1 l 14,0 c 0.55402,0 1,-0.44598 1,-1 L 19,4 C 19,3.44598 18.55402,3 18,3 L 4,3 Z m 7,3 c 0.90721,0 1.7436,0.22283 2.50977,0.66992 0.76601,0.44709 1.37322,1.0543 1.82031,1.82031 C 15.77701,9.25624 16,10.09287 16,11 c 0,0.90705 -0.22291,1.74368 -0.66992,2.50977 -0.44709,0.766 -1.0543,1.3733 -1.82031,1.82031 C 12.74376,15.77717 11.90713,16 11,16 10.09287,16 9.25632,15.77717 8.49023,15.33008 7.72414,14.88299 7.11701,14.2757 6.66992,13.50977 6.22291,12.7436 6,11.90713 6,11 6,10.09295 6.22275,9.25632 6.66992,8.49023 7.11701,7.72414 7.72414,7.11693 8.49023,6.66992 9.25624,6.22283 10.09287,6 11,6 Z M 9.5293,8.51953 c -0.11723,0 -0.21832,0.0406 -0.30078,0.12305 L 8.64258,9.22852 c -0.0825,0.0825 -0.12305,0.18355 -0.12305,0.30078 0,0.11283 0.0406,0.21058 0.12305,0.29297 L 9.82227,11 8.64258,12.17773 c -0.0825,0.0824 -0.12305,0.18014 -0.12305,0.29297 0,0.11715 0.0406,0.2184 0.12305,0.30078 l 0.58594,0.58594 c 0.0825,0.0825 0.18355,0.12305 0.30078,0.12305 0.11283,0 0.2105,-0.0406 0.29297,-0.12305 L 11,12.17773 l 1.17773,1.17969 c 0.0823,0.0825 0.18014,0.12305 0.29297,0.12305 0.11723,0 0.21832,-0.0406 0.30078,-0.12305 l 0.58594,-0.58594 c 0.0825,-0.0824 0.12305,-0.18363 0.12305,-0.30078 0,-0.11283 -0.0406,-0.21058 -0.12305,-0.29297 L 12.17773,11 13.35742,9.82227 c 0.0825,-0.0824 0.12305,-0.18014 0.12305,-0.29297 0,-0.11723 -0.0406,-0.21832 -0.12305,-0.30078 L 12.77148,8.64258 c -0.0825,-0.0825 -0.18355,-0.12305 -0.30078,-0.12305 -0.11283,0 -0.21066,0.0406 -0.29297,0.12305 L 11,9.82227 9.82227,8.64258 C 9.73977,8.56008 9.64213,8.51953 9.5293,8.51953 Z"
     />
</svg>
